RASD/Images/SequenceDiagrams/Create_Report.svg

<svg version="1.1" xmlns="http://www.w3.org/2000/svg" xmlns:xlink="http://www.w3.org/1999/xlink" width="474" height="863"><defs/><g><g/><g/><g/><g/><g/><g/><g/><g/><g/><g/><g><rect fill="white" stroke="none" x="0" y="0" width="474" height="863"/></g><g><text fill="black" stroke="none" font-family="sans-serif" font-size="16.5pt" font-style="normal" font-weight="normal" text-decoration="normal" x="163.2709535738281" y="24.50280495" text-anchor="start" dominant-baseline="alphabetic">Create a report</text></g><g/><g><path fill="none" stroke="black" paint-order="fill stroke markers" d=" M 98.01121979999999 128.80307802049998 L 98.01121979999999 863.8872265205001" stroke-miterlimit="10" stroke-width="1.3612669416666667" stroke-dasharray="12.565541,5.445067766666667"/><path fill="none" stroke="black" paint-order="fill stroke markers" d=" M 338.0745668833333 128.80307802049998 L 338.0745668833333 863.8872265205001" stroke-miterlimit="10" stroke-width="1.3612669416666667" stroke-dasharray="12.565541,5.445067766666667"/></g><g><g><path fill="white" stroke="black" paint-order="fill stroke markers" d=" M 107.322285681 59.70516806150002 A 9.311065881 9.311065881 0 1 1 107.32228102546743 59.69585699717086 M 98.01121979999999 69.01623394250002 L 98.01121979999999 88.94518196850002 M 86.24987342399999 76.20372339450002 L 109.772566176 76.20372339450002 M 98.01121979999999 88.94518196850002 L 86.24987342399999 107.56731373050002 M 98.01121979999999 88.94518196850002 L 109.772566176 107.56731373050002" stroke-miterlimit="10" stroke-width="2.7769845610000004" stroke-dasharray=""/></g><g><g/><text fill="black" stroke="none" font-family="sans-serif" font-size="11pt" font-style="normal" font-weight="normal" text-decoration="normal" x="46.01121979999999" y="123.90251703050001" text-anchor="start" dominant-baseline="alphabetic">Registered user</text></g><path fill="none" stroke="none"/><g><path fill="white" stroke="black" paint-order="fill stroke markers" d=" M 281.8508713028333 84.69802911050002 L 394.29826246383334 84.69802911050002 L 394.29826246383334 128.8030780205 L 281.8508713028333 128.8030780205 L 281.8508713028333 84.69802911050002 Z" stroke-miterlimit="10" stroke-width="2.613632528" stroke-dasharray=""/></g><g><g/><text fill="black" stroke="none" font-family="sans-serif" font-size="11pt" font-style="normal" font-weight="normal" text-decoration="normal" x="299.5745668833333" y="112.46787472049999" text-anchor="start" dominant-baseline="alphabetic">SafeStreets</text></g></g><g><path fill="white" stroke="black" paint-order="fill stroke markers" d=" M 89.84361815 136.97067967049998 L 106.17882144999999 136.97067967049998 L 106.17882144999999 847.5520232205001 L 89.84361815 847.5520232205001 L 89.84361815 136.97067967049998" stroke-miterlimit="10" stroke-width="1.3612669416666667" stroke-dasharray=""/><path fill="white" stroke="black" paint-order="fill stroke markers" d=" M 329.9069652333333 182.70924891049998 L 346.2421685333333 182.70924891049998 L 346.2421685333333 228.44781815049998 L 329.9069652333333 228.44781815049998 L 329.9069652333333 182.70924891049998" stroke-miterlimit="10" stroke-width="1.3612669416666667" stroke-dasharray=""/><path fill="white" stroke="black" paint-order="fill stroke markers" d=" M 98.01121979999999 334.62663960049997 L 114.34642309999998 334.62663960049997 L 114.34642309999998 375.4646478505 L 98.01121979999999 375.4646478505 L 98.01121979999999 334.62663960049997" stroke-miterlimit="10" stroke-width="1.3612669416666667" stroke-dasharray=""/><path fill="white" stroke="black" paint-order="fill stroke markers" d=" M 329.9069652333333 421.2032170905 L 346.2421685333333 421.2032170905 L 346.2421685333333 806.7140149705001 L 329.9069652333333 806.7140149705001 L 329.9069652333333 421.2032170905" stroke-miterlimit="10" stroke-width="1.3612669416666667" stroke-dasharray=""/><g><g><rect fill="white" stroke="none" x="144.59261284666667" y="161.4734846205" width="146.90056099" height="21.23576429"/></g><text fill="black" stroke="none" font-family="sans-serif" font-size="11pt" font-style="normal" font-weight="normal" text-decoration="normal" x="147.04289334166666" y="176.17516759049997" text-anchor="start" dominant-baseline="alphabetic">Clicks "Report" button</text></g><g><path fill="none" stroke="black" paint-order="fill stroke markers" d=" M 106.17882144999999 182.70924891049998 L 327.18443135 182.70924891049998" stroke-miterlimit="10" stroke-width="1.3612669416666667" stroke-dasharray=""/><g transform="translate(329.9069652333333,182.70924891049998) translate(-329.9069652333333,-182.70924891049998)"><path fill="black" stroke="none" paint-order="stroke fill markers" d=" M 316.29429581666665 175.90291420216664 L 329.9069652333333 182.70924891049998 L 316.29429581666665 189.51558361883332 Z"/></g></g><g><g><rect fill="white" stroke="none" x="145.59261284666667" y="207.2120538605" width="144.90056099" height="21.23576429"/></g><text fill="black" stroke="none" font-family="sans-serif" font-size="11pt" font-style="normal" font-weight="normal" text-decoration="normal" x="148.04289334166666" y="221.91373683049997" text-anchor="start" dominant-baseline="alphabetic">Prompts Report page</text></g><g><path fill="none" stroke="black" paint-order="fill stroke markers" d=" M 329.9069652333333 228.44781815049998 L 108.90135533333333 228.44781815049998" stroke-miterlimit="10" stroke-width="1.3612669416666667" stroke-dasharray="6.53408132"/><g transform="translate(106.17882144999999,228.44781815049998) translate(-106.17882144999999,-228.44781815049998)"><path fill="black" stroke="none" paint-order="stroke fill markers" d=" M 119.79149086666665 221.64148344216665 L 106.17882144999999 228.44781815049998 L 119.79149086666665 235.25415285883332 Z"/></g></g><g><g><rect fill="white" stroke="none" x="133.67641367166667" y="297.05567201049996" width="163.90056099" height="21.23576429"/></g><text fill="black" stroke="none" font-family="sans-serif" font-size="11pt" font-style="normal" font-weight="normal" text-decoration="normal" x="136.12669416666665" y="311.75735498049994" text-anchor="start" dominant-baseline="alphabetic">Fill form and take photos</text></g><g><path fill="none" stroke="black" paint-order="fill stroke markers" d=" M 106.17882144999999 318.2914363005 L 179.6872363 318.2914363005 L 179.6872363 334.62663960049997 L 117.06895698333332 334.62663960049997" stroke-miterlimit="10" stroke-width="1.3612669416666667" stroke-dasharray=""/><g transform="translate(114.3464231,334.62663960049997) translate(-114.3464231,-334.62663960049997)"><path fill="black" stroke="none" paint-order="stroke fill markers" d=" M 127.95909251666666 327.82030489216663 L 114.3464231 334.62663960049997 L 127.95909251666666 341.4329743088333 Z"/></g></g><g><g><rect fill="white" stroke="none" x="129.59261284666667" y="399.9674528005" width="176.90056099" height="21.23576429"/></g><text fill="black" stroke="none" font-family="sans-serif" font-size="11pt" font-style="normal" font-weight="normal" text-decoration="normal" x="132.04289334166666" y="414.66913577049996" text-anchor="start" dominant-baseline="alphabetic">Click "Send Report" button</text></g><g><path fill="none" stroke="black" paint-order="fill stroke markers" d=" M 106.17882144999999 421.2032170905 L 327.18443135 421.2032170905" stroke-miterlimit="10" stroke-width="1.3612669416666667" stroke-dasharray=""/><g transform="translate(329.9069652333333,421.2032170905) translate(-329.9069652333333,-421.2032170905)"><path fill="black" stroke="none" paint-order="stroke fill markers" d=" M 316.29429581666665 414.39688238216667 L 329.9069652333333 421.2032170905 L 316.29429581666665 428.00955179883334 Z"/></g></g><g><g><rect fill="white" stroke="none" x="365.57215910499997" y="445.7060220405" width="86.90056099" height="21.23576429"/></g><text fill="black" stroke="none" font-family="sans-serif" font-size="11pt" font-style="normal" font-weight="normal" text-decoration="normal" x="368.0224396" y="460.40770501049997" text-anchor="start" dominant-baseline="alphabetic">Checks data</text></g><g><path fill="none" stroke="black" paint-order="fill stroke markers" d=" M 346.2421685333333 466.9417863305 L 411.5829817333333 466.9417863305 L 411.5829817333333 483.2769896305 L 348.9647024166666 483.2769896305" stroke-miterlimit="10" stroke-width="1.3612669416666667" stroke-dasharray=""/><g transform="translate(346.2421685333333,483.2769896305) translate(-346.2421685333333,-483.2769896305)"><path fill="black" stroke="none" paint-order="stroke fill markers" d=" M 359.85483795 476.47065492216666 L 346.2421685333333 483.2769896305 L 359.85483795 490.08332433883334 Z"/></g></g><g><g><rect fill="white" stroke="none" x="157.59261284666667" y="551.8848434905" width="120.90056099" height="21.23576429"/></g><g><rect fill="white" stroke="none" x="157.59261284666667" y="568.2200467905" width="91.90056099" height="21.23576429"/></g><text fill="black" stroke="none" font-family="sans-serif" font-size="11pt" font-style="normal" font-weight="normal" text-decoration="normal" x="160.04289334166666" y="566.5865264605" text-anchor="start" dominant-baseline="alphabetic">[complete = false]</text><text fill="black" stroke="none" font-family="sans-serif" font-size="11pt" font-style="normal" font-weight="normal" text-decoration="normal" x="160.04289334166666" y="582.9217297604999" text-anchor="start" dominant-baseline="alphabetic">Missing fields</text></g><g><path fill="none" stroke="black" paint-order="fill stroke markers" d=" M 329.9069652333333 589.4558110805 L 108.90135533333333 589.4558110805" stroke-miterlimit="10" stroke-width="1.3612669416666667" stroke-dasharray="6.53408132"/><g transform="translate(106.17882144999999,589.4558110805) translate(-106.17882144999999,-589.4558110805)"><path fill="black" stroke="none" paint-order="stroke fill markers" d=" M 119.79149086666665 582.6494763721666 L 106.17882144999999 589.4558110805 L 119.79149086666665 596.2621457888333 Z"/></g></g><g><g><rect fill="white" stroke="none" x="160.59261284666667" y="658.0636649405" width="114.90056099" height="21.23576429"/></g><g><rect fill="white" stroke="none" x="160.59261284666667" y="674.3988682405" width="80.90056099" height="21.23576429"/></g><text fill="black" stroke="none" font-family="sans-serif" font-size="11pt" font-style="normal" font-weight="normal" text-decoration="normal" x="163.04289334166666" y="672.7653479104999" text-anchor="start" dominant-baseline="alphabetic">[complete = true]</text><text fill="black" stroke="none" font-family="sans-serif" font-size="11pt" font-style="normal" font-weight="normal" text-decoration="normal" x="163.04289334166666" y="689.1005512104999" text-anchor="start" dominant-baseline="alphabetic">Report sent</text></g><g><path fill="none" stroke="black" paint-order="fill stroke markers" d=" M 329.9069652333333 695.6346325305 L 108.90135533333333 695.6346325305" stroke-miterlimit="10" stroke-width="1.3612669416666667" stroke-dasharray="6.53408132"/><g transform="translate(106.17882144999999,695.6346325305) translate(-106.17882144999999,-695.6346325305)"><path fill="black" stroke="none" paint-order="stroke fill markers" d=" M 119.79149086666665 688.8282978221666 L 106.17882144999999 695.6346325305 L 119.79149086666665 702.4409672388333 Z"/></g></g><g><g><rect fill="white" stroke="none" x="365.57215910499997" y="769.1430473805001" width="77.90056099" height="21.23576429"/></g><text fill="black" stroke="none" font-family="sans-serif" font-size="11pt" font-style="normal" font-weight="normal" text-decoration="normal" x="368.0224396" y="783.8447303505001" text-anchor="start" dominant-baseline="alphabetic">Saves data</text></g><g><path fill="none" stroke="black" paint-order="fill stroke markers" d=" M 346.2421685333333 790.3788116705001 L 411.5829817333333 790.3788116705001 L 411.5829817333333 806.7140149705001 L 348.9647024166666 806.7140149705001" stroke-miterlimit="10" stroke-width="1.3612669416666667" stroke-dasharray=""/><g transform="translate(346.2421685333333,806.7140149705001) translate(-346.2421685333333,-806.7140149705001)"><path fill="black" stroke="none" paint-order="stroke fill markers" d=" M 359.85483795 799.9076802621668 L 346.2421685333333 806.7140149705001 L 359.85483795 813.5203496788334 Z"/></g></g><g><g/><path fill="none" stroke="black" paint-order="fill stroke markers" d=" M 16.335203299999996 252.95062310049997 L 458.19004125 252.95062310049997 L 458.19004125 744.6402424305 L 16.335203299999996 744.6402424305 L 16.335203299999996 252.95062310049997 Z" stroke-miterlimit="10" stroke-width="2.3336004714285714" stroke-dasharray=""/><path fill="white" stroke="black" paint-order="fill stroke markers" d=" M 16.335203299999996 252.95062310049997 L 16.335203299999996 272.5528670605 L 73.0056099 272.5528670605 L 82.80673188 262.7517450805 L 82.80673188 252.95062310049997 L 16.335203299999996 252.95062310049997" stroke-miterlimit="10" stroke-width="2.3336004714285714" stroke-dasharray=""/><text fill="black" stroke="none" font-family="sans-serif" font-size="8.8pt" font-style="normal" font-weight="bold" text-decoration="normal" x="32.67040659999999" y="266.0187857405" text-anchor="start" dominant-baseline="alphabetic">loop</text><text fill="black" stroke="none" font-family="sans-serif" font-size="8.8pt" font-style="normal" font-weight="bold" text-decoration="normal" x="99.14193518" y="266.0187857405" text-anchor="start" dominant-baseline="alphabetic">[complete == false]</text></g><g><g/><path fill="none" stroke="black" paint-order="fill stroke markers" d=" M 32.67040659999999 507.7797945804999 L 395.24777843333334 507.7797945804999 L 395.24777843333334 720.1374374805 L 32.67040659999999 720.1374374805 L 32.67040659999999 507.7797945804999 Z" stroke-miterlimit="10" stroke-width="2.3336004714285714" stroke-dasharray=""/><path fill="white" stroke="black" paint-order="fill stroke markers" d=" M 32.67040659999999 507.7797945804999 L 32.67040659999999 527.3820385404999 L 79.34081319999999 527.3820385404999 L 89.14193517999999 517.5809165604999 L 89.14193517999999 507.7797945804999 L 32.67040659999999 507.7797945804999" stroke-miterlimit="10" stroke-width="2.3336004714285714" stroke-dasharray=""/><text fill="black" stroke="none" font-family="sans-serif" font-size="8.8pt" font-style="normal" font-weight="bold" text-decoration="normal" x="49.005609899999996" y="520.8479572204999" text-anchor="start" dominant-baseline="alphabetic">alt</text><text fill="black" stroke="none" font-family="sans-serif" font-size="8.8pt" font-style="normal" font-weight="bold" text-decoration="normal" x="105.47713848" y="520.8479572204999" text-anchor="start" dominant-baseline="alphabetic">[Missing fields]</text><g><path fill="none" stroke="black" paint-order="fill stroke markers" d=" M 32.67040659999999 613.9586160304999 L 395.24777843333334 613.9586160304999" stroke-miterlimit="10" stroke-width="2.3336004714285714" stroke-dasharray="4.083800825"/></g><g/><text fill="black" stroke="none" font-family="sans-serif" font-size="8.8pt" font-style="normal" font-weight="bold" text-decoration="normal" x="105.47713848" y="627.0267786704999" text-anchor="start" dominant-baseline="alphabetic">[No missing fields]</text></g><g/></g><g/><g/></g></svg>

<?xml version="1.0" encoding="utf-8"?>
<!-- Generator: Adobe Illustrator 16.0.0, SVG Export Plug-In . SVG Version: 6.00 Build 0)  -->
<!DOCTYPE svg PUBLIC "-//W3C//DTD SVG 1.1//EN" "http://www.w3.org/Graphics/SVG/1.1/DTD/svg11.dtd">
<svg version="1.1" id="Layer_1" xmlns="http://www.w3.org/2000/svg" xmlns:xlink="http://www.w3.org/1999/xlink" x="0px" y="0px"
	 width="474px" height="863px" viewBox="0 0 474 863" enable-background="new 0 0 474 863" xml:space="preserve">
<g>
	<rect fill="#FFFFFF" width="474" height="863"/>
</g>
<g>
	<path fill="none" stroke="#000000" stroke-width="1.3613" stroke-miterlimit="10" stroke-dasharray="12.5655,5.4451" d="
		M98.011,128.803v735.084"/>
	<path fill="none" stroke="#000000" stroke-width="1.3613" stroke-miterlimit="10" stroke-dasharray="12.5655,5.4451" d="
		M338.074,128.803v735.084"/>
</g>
<g>
	<g>
		<path fill="#FFFFFF" stroke="#000000" stroke-width="2.777" stroke-miterlimit="10" d="M107.322,59.705
			c0.001,5.143-4.166,9.313-9.308,9.314c-5.142,0.002-9.313-4.166-9.314-9.308c-0.001-5.142,4.166-9.312,9.308-9.314
			c5.139-0.001,9.307,4.16,9.314,9.299 M98.011,69.016v19.929 M86.25,76.204h23.522 M98.011,88.945L86.25,107.567 M98.011,88.945
			l11.761,18.622"/>
	</g>
	<g>
		<text transform="matrix(1 0 0 1 46.0112 123.9023)" font-family="'ArialMT'" font-size="11">Registered user</text>
	</g>
	<path d="M0,0"/>
	<g>
		<path fill="#FFFFFF" stroke="#000000" stroke-width="2.6136" stroke-miterlimit="10" d="M281.852,84.698h112.446v44.105H281.852
			V84.698z"/>
	</g>
	<g>
		<text transform="matrix(1 0 0 1 299.5742 112.4678)" font-family="'ArialMT'" font-size="11">SafeStreets</text>
	</g>
</g>
<g>
	<path fill="#FFFFFF" stroke="#000000" stroke-width="1.3613" stroke-miterlimit="10" d="M89.844,136.971h16.335v710.581H89.844
		V136.971"/>
	<path fill="#FFFFFF" stroke="#000000" stroke-width="1.3613" stroke-miterlimit="10" d="M329.907,182.709h16.335v45.739h-16.335
		V182.709"/>
	<path fill="#FFFFFF" stroke="#000000" stroke-width="1.3613" stroke-miterlimit="10" d="M98.011,334.626h16.335v40.838H98.011
		V334.626"/>
	<path fill="#FFFFFF" stroke="#000000" stroke-width="1.3613" stroke-miterlimit="10" d="M329.907,421.203h16.335v385.511h-16.335
		V421.203"/>
	<g>
		<g>
			<rect x="144.593" y="161.474" fill="#FFFFFF" width="146.9" height="21.235"/>
		</g>
		<text transform="matrix(1 0 0 1 147.043 176.1748)" font-family="'ArialMT'" font-size="11">Clicks &quot;Report&quot; button</text>
	</g>
	<g>
		<path fill="none" stroke="#000000" stroke-width="1.3613" stroke-miterlimit="10" d="M106.179,182.709h221.006"/>
		<g transform="translate(329.9069652333333,182.70924891049998) translate(-329.9069652333333,-182.70924891049998)">
			<path d="M316.294,175.903l13.613,6.806l-13.613,6.807V175.903z"/>
		</g>
	</g>
	<g>
		<g>
			<rect x="145.593" y="207.212" fill="#FFFFFF" width="144.9" height="21.236"/>
		</g>
		<text transform="matrix(1 0 0 1 148.043 221.9141)" font-family="'ArialMT'" font-size="11">Prompts Report page</text>
	</g>
	<g>
		<path fill="none" stroke="#000000" stroke-width="1.3613" stroke-miterlimit="10" stroke-dasharray="6.5341" d="M329.907,228.448
			H108.901"/>
		<g transform="translate(106.17882144999999,228.44781815049998) translate(-106.17882144999999,-228.44781815049998)">
			<path d="M119.792,221.642l-13.613,6.806l13.613,6.806V221.642z"/>
		</g>
	</g>
	<g>
		<g>
			<rect x="133.676" y="297.056" fill="#FFFFFF" width="163.901" height="21.236"/>
		</g>
		<text transform="matrix(1 0 0 1 136.1265 311.7578)" font-family="'ArialMT'" font-size="11">Fill form and take photos</text>
	</g>
	<g>
		<path fill="none" stroke="#000000" stroke-width="1.3613" stroke-miterlimit="10" d="M106.179,318.292h73.508v16.335h-62.618"/>
		<g transform="translate(114.3464231,334.62663960049997) translate(-114.3464231,-334.62663960049997)">
			<path d="M127.959,327.82l-13.613,6.806l13.613,6.807V327.82z"/>
		</g>
	</g>
	<g>
		<g>
			<rect x="129.593" y="399.967" fill="#FFFFFF" width="176.9" height="21.236"/>
		</g>
		<text transform="matrix(1 0 0 1 132.043 414.6689)" font-family="'ArialMT'" font-size="11">Click &quot;Send Report&quot; button</text>
	</g>
	<g>
		<path fill="none" stroke="#000000" stroke-width="1.3613" stroke-miterlimit="10" d="M106.179,421.203h221.006"/>
		<g transform="translate(329.9069652333333,421.2032170905) translate(-329.9069652333333,-421.2032170905)">
			<path d="M316.294,414.397l13.613,6.806l-13.613,6.807V414.397z"/>
		</g>
	</g>
	<g>
		<g>
			<rect x="365.572" y="445.706" fill="#FFFFFF" width="86.9" height="21.235"/>
		</g>
		<text transform="matrix(1 0 0 1 368.0225 460.4072)" font-family="'ArialMT'" font-size="11">Checks data</text>
	</g>
	<g>
		<path fill="none" stroke="#000000" stroke-width="1.3613" stroke-miterlimit="10" d="M346.242,466.941h65.341v16.336h-62.618"/>
		<g transform="translate(346.2421685333333,483.2769896305) translate(-346.2421685333333,-483.2769896305)">
			<path d="M359.854,476.471l-13.612,6.807l13.612,6.806V476.471z"/>
		</g>
	</g>
	<g>
		<g>
			<rect x="157.593" y="551.885" fill="#FFFFFF" width="120.9" height="21.235"/>
		</g>
		<g>
			<rect x="157.593" y="568.22" fill="#FFFFFF" width="91.9" height="21.236"/>
		</g>
		<text transform="matrix(1 0 0 1 160.043 566.5869)" font-family="'ArialMT'" font-size="11">[complete = false]</text>
		<text transform="matrix(1 0 0 1 160.043 582.9219)" font-family="'ArialMT'" font-size="11">Missing fields</text>
	</g>
	<g>
		<path fill="none" stroke="#000000" stroke-width="1.3613" stroke-miterlimit="10" stroke-dasharray="6.5341" d="M329.907,589.456
			H108.901"/>
		<g transform="translate(106.17882144999999,589.4558110805) translate(-106.17882144999999,-589.4558110805)">
			<path d="M119.792,582.649l-13.613,6.807l13.613,6.806V582.649z"/>
		</g>
	</g>
	<g>
		<g>
			<rect x="160.593" y="658.063" fill="#FFFFFF" width="114.9" height="21.236"/>
		</g>
		<g>
			<rect x="160.593" y="674.398" fill="#FFFFFF" width="80.9" height="21.236"/>
		</g>
		<text transform="matrix(1 0 0 1 163.043 672.7656)" font-family="'ArialMT'" font-size="11">[complete = true]</text>
		<text transform="matrix(1 0 0 1 163.043 689.1006)" font-family="'ArialMT'" font-size="11">Report sent</text>
	</g>
	<g>
		<path fill="none" stroke="#000000" stroke-width="1.3613" stroke-miterlimit="10" stroke-dasharray="6.5341" d="M329.907,695.635
			H108.901"/>
		<g transform="translate(106.17882144999999,695.6346325305) translate(-106.17882144999999,-695.6346325305)">
			<path d="M119.792,688.828l-13.613,6.807l13.613,6.807V688.828z"/>
		</g>
	</g>
	<g>
		<g>
			<rect x="365.572" y="769.144" fill="#FFFFFF" width="77.9" height="21.235"/>
		</g>
		<text transform="matrix(1 0 0 1 368.0225 783.8447)" font-family="'ArialMT'" font-size="11">Saves data</text>
	</g>
	<g>
		<path fill="none" stroke="#000000" stroke-width="1.3613" stroke-miterlimit="10" d="M346.242,790.379h65.341v16.335h-62.618"/>
		<g transform="translate(346.2421685333333,806.7140149705001) translate(-346.2421685333333,-806.7140149705001)">
			<path d="M359.854,799.907l-13.612,6.807l13.612,6.807V799.907z"/>
		</g>
	</g>
	<g>
		<path fill="none" stroke="#000000" stroke-width="2.3336" stroke-miterlimit="10" d="M16.335,252.951H458.19v491.69H16.335
			V252.951z"/>
		<path fill="#FFFFFF" stroke="#000000" stroke-width="2.3336" stroke-miterlimit="10" d="M16.335,252.951v19.602h56.67l9.801-9.801
			v-9.801H16.335"/>
		<text transform="matrix(1 0 0 1 32.6704 266.0186)" font-family="'Arial-BoldMT'" font-size="8.8">loop</text>
		<text transform="matrix(1 0 0 1 99.1421 266.0186)" font-family="'Arial-BoldMT'" font-size="8.8">[complete == false]</text>
	</g>
	<g>
		<path fill="none" stroke="#000000" stroke-width="2.3336" stroke-miterlimit="10" d="M32.67,507.78h362.578v212.357H32.67V507.78z
			"/>
		<path fill="#FFFFFF" stroke="#000000" stroke-width="2.3336" stroke-miterlimit="10" d="M32.67,507.78v19.602h46.67l9.801-9.801
			v-9.801H32.67"/>
		<text transform="matrix(1 0 0 1 49.0054 520.8477)" font-family="'Arial-BoldMT'" font-size="8.8">alt</text>
		<text transform="matrix(1 0 0 1 105.4771 520.8477)" font-family="'Arial-BoldMT'" font-size="8.8">[Missing fields]</text>
		<g>
			<path fill="none" stroke="#000000" stroke-width="2.3336" stroke-miterlimit="10" stroke-dasharray="4.0838" d="M32.67,613.959
				h362.578"/>
		</g>
		<text transform="matrix(1 0 0 1 105.4771 627.0264)" font-family="'Arial-BoldMT'" font-size="8.8">[No missing fields]</text>
	</g>
</g>
</svg>
